icons/virus-sanitizer-spray_fill.svg

<svg width="48" height="48" viewBox="0 0 48 48" fill="none" xmlns="http://www.w3.org/2000/svg">
<path d="M24.8597 10.8323L23.2602 12.4318L19.0176 8.18916L20.6171 6.58969C20.9921 6.21462 21.5008 6.00391 22.0313 6.00391C22.5617 6.00391 23.0704 6.21462 23.4455 6.58969L24.8597 8.00391C25.2348 8.37898 25.4455 8.88769 25.4455 9.41812C25.4455 9.94855 25.2348 10.4573 24.8597 10.8323Z" fill="black"/>
<path d="M14.3744 9.41808L17.4181 9.41811L22.0313 14.0313L22.0312 17.0749C22.0312 17.6053 21.8205 18.114 21.4454 18.4891L15.6672 24.2673C14.1051 25.8294 11.5725 25.8294 10.0104 24.2673L7.18195 21.4388C5.61985 19.8768 5.61985 17.3441 7.18195 15.782L12.9601 10.0039C13.3352 9.62877 13.8439 9.41805 14.3744 9.41808Z" fill="black"/>
<path d="M31.3853 11.7498C31.4238 11.7091 31.463 11.6691 31.5031 11.6299L31.5021 11.6309L31.9612 12.0985L31.3853 11.7498Z" fill="black"/>
<path d="M31.9629 12.0995L31.5031 11.6299C32.3061 10.842 33.3824 10.3932 34.5081 10.3755C35.6341 10.3577 36.7245 10.7727 37.5523 11.5355C38.3801 12.2983 38.8815 13.3505 38.9505 14.4734C39.004 15.3445 38.794 16.2051 38.357 16.9478C38.8516 17.8753 39.0708 18.9301 38.9799 19.9871C38.868 21.2876 38.2939 22.5049 37.362 23.4207C36.4303 24.3364 35.2018 24.8908 33.8975 24.9855C32.8353 25.0626 31.7785 24.8308 30.853 24.3255C30.5424 24.5022 30.2105 24.6407 29.8644 24.7374C29.2782 24.9013 28.6641 24.9417 28.0614 24.8559C27.4586 24.7701 26.8803 24.5601 26.3633 24.239C25.8463 23.918 25.4019 23.4928 25.0588 22.9906C24.7157 22.4883 24.4815 21.9201 24.3714 21.3221C24.2614 20.7242 24.2779 20.1099 24.4199 19.5187C24.5619 18.9275 24.8262 18.3725 25.1957 17.8893C25.3535 17.6829 25.5291 17.4915 25.72 17.3171L23.6288 13.8128L25.3463 12.7879L27.9053 17.0762C28.0444 17.3092 28.0828 17.5888 28.0116 17.8507C27.9405 18.1126 27.766 18.3343 27.5281 18.465C27.2379 18.6245 26.9847 18.8423 26.7844 19.1041C26.5842 19.366 26.4413 19.6663 26.3646 19.9858C26.2878 20.3052 26.2789 20.637 26.3384 20.96C26.3979 21.283 26.5244 21.5904 26.7103 21.8625C26.8961 22.1346 27.1372 22.3654 27.4184 22.54C27.6996 22.7146 28.0145 22.8291 28.3431 22.8758C28.6717 22.9226 29.0065 22.9006 29.326 22.8113C29.6455 22.722 29.9424 22.5674 30.1979 22.3577C30.5504 22.0683 31.0542 22.0541 31.4224 22.3233C32.0941 22.8142 32.9203 23.0512 33.7527 22.9907C34.585 22.9303 35.3676 22.5766 35.9602 21.9942C36.5526 21.412 36.9164 20.6394 36.9873 19.8156C37.0581 18.9919 36.8317 18.1694 36.3477 17.4959C36.0796 17.1229 36.1002 16.6152 36.3976 16.265C36.7925 15.8 36.9915 15.2022 36.9542 14.596C36.917 13.9899 36.6463 13.4203 36.197 13.0062C35.7475 12.592 35.1539 12.3655 34.5396 12.3752C33.9252 12.3849 33.3392 12.63 32.9033 13.058L32.9023 13.059C32.7486 13.2095 32.617 13.3805 32.5112 13.5671C32.3779 13.8021 32.1552 13.9732 31.8938 14.0414C31.6324 14.1097 31.3544 14.0692 31.1233 13.9292L26.8429 11.3375L27.8788 9.62664L32.1287 12.2689L32.1592 12.2184L31.9629 12.0995Z" fill="black"/>
<path d="M21.0619 28C21.2717 26.3172 22.0042 24.7968 23.0918 23.6062C23.1886 23.7815 23.2939 23.9526 23.4074 24.1186C23.9077 24.851 24.5553 25.4704 25.3082 25.938C26.061 26.4055 26.9027 26.7111 27.7796 26.8358C28.6564 26.9606 29.5498 26.902 30.4029 26.6635C30.5548 26.6211 30.7048 26.5731 30.8527 26.5197C31.8629 26.8991 32.9507 27.0594 34.0423 26.9802C34.9152 26.9168 35.7635 26.7022 36.5514 26.3521C36.7359 26.8784 36.867 27.4299 36.9381 28H40V27.8C40 27.2478 40.4477 26.8 41 26.8C41.5523 26.8 42 27.2478 42 27.8V30.2001C42 30.7523 41.5523 31.2001 41 31.2001C40.4477 31.2001 40 30.7523 40 30.2001V30H36.9381C36.756 31.4607 36.18 32.7991 35.3199 33.9056L37.2 35.7858L37.6929 35.2929C38.0834 34.9024 38.7166 34.9024 39.1071 35.2929C39.4976 35.6834 39.4976 36.3166 39.1071 36.7071L36.7071 39.1071C36.3166 39.4976 35.6834 39.4976 35.2929 39.1071C34.9024 38.7166 34.9024 38.0834 35.2929 37.6929L35.7858 37.2L33.9056 35.3199C32.7991 36.18 31.4607 36.756 30 36.9381V40H30.2001C30.7523 40 31.2001 40.4477 31.2001 41C31.2001 41.5523 30.7523 42 30.2001 42H27.8C27.2478 42 26.8 41.5523 26.8 41C26.8 40.4477 27.2478 40 27.8 40H28V36.9381C26.4404 36.7436 25.0203 36.1002 23.8729 35.1413L21.7142 37.3L22.1071 37.6929C22.4976 38.0834 22.4976 38.7166 22.1071 39.1071C21.7166 39.4976 21.0834 39.4976 20.6929 39.1071L18.2929 36.7071C17.9024 36.3166 17.9024 35.6834 18.2929 35.2929C18.6834 34.9024 19.3166 34.9024 19.7071 35.2929L20.3 35.8858L22.5088 33.677C21.7436 32.6167 21.2317 31.3615 21.0619 30H18V30.2001C18 30.7523 17.5523 31.2001 17 31.2001C16.4477 31.2001 16 30.7523 16 30.2001V27.8C16 27.2478 16.4477 26.8 17 26.8C17.5523 26.8 18 27.2478 18 27.8V28H21.0619Z" fill="black"/>
<path d="M11 32C11.5523 32 12 32.4477 12 33V34.1707C12.1003 34.2062 12.1982 34.2468 12.2933 34.2923L13.1212 33.4644C13.5117 33.0739 14.1449 33.0739 14.5354 33.4644C14.926 33.8549 14.926 34.4881 14.5354 34.8786L13.7076 35.7065C13.7531 35.8016 13.7938 35.8996 13.8293 36H15C15.5523 36 16 36.4477 16 37C16 37.5523 15.5523 38 15 38H13.8293C13.7938 38.1004 13.7532 38.1983 13.7076 38.2934L14.5355 39.1213C14.926 39.5118 14.926 40.145 14.5355 40.5355C14.145 40.926 13.5118 40.926 13.1213 40.5355L12.2934 39.7076C12.1983 39.7532 12.1004 39.7938 12 39.8293V40.9998C12 41.5521 11.5523 41.9998 11 41.9998C10.4477 41.9998 10 41.5521 10 40.9998V39.8293C9.89964 39.7938 9.80172 39.7532 9.70659 39.7076L8.87871 40.5355C8.48819 40.926 7.85502 40.926 7.4645 40.5355C7.07398 40.145 7.07397 39.5118 7.4645 39.1213L8.29237 38.2934C8.24684 38.1983 8.20618 38.1004 8.17071 38H7C6.44772 38 6 37.5523 6 37C6 36.4477 6.44772 36 7 36H8.17071C8.2062 35.8996 8.24688 35.8016 8.29243 35.7065L7.46457 34.8786C7.07405 34.4881 7.07405 33.8549 7.46457 33.4644C7.8551 33.0739 8.48826 33.0739 8.87879 33.4644L9.70672 34.2923C9.80181 34.2468 9.89968 34.2062 10 34.1707V33C10 32.4477 10.4477 32 11 32Z" fill="black"/>
</svg>

<svg
  xmlns="http://www.w3.org/2000/svg"
  width="24"
  height="24"
  viewBox="0 0 24 24"
  fill="none"
  stroke="currentColor"
  stroke-width="2"
  stroke-linecap="round"
  stroke-linejoin="round"
>
  <path d="m24.86 10.832-1.6 1.6-4.242-4.243 1.6-1.6a2 2 0 0 1 2.828 0l1.414 1.415a2 2 0 0 1 0 2.828" />
  <path d="M14.374 9.418h3.044l4.613 4.613v3.044a2 2 0 0 1-.586 1.414l-5.778 5.778a4 4 0 0 1-5.657 0L7.182 21.44a4 4 0 0 1 0-5.657l5.778-5.778a2 2 0 0 1 1.414-.586" />
  <path d="m31.385 11.75.118-.12.458.468z" />
  <path d="m31.963 12.1-.46-.47a4.39 4.39 0 0 1 6.05-.095 4.36 4.36 0 0 1 .804 5.413 5.46 5.46 0 0 1-.995 6.473 5.52 5.52 0 0 1-6.509.905 4.4 4.4 0 0 1-2.792.53 4.4 4.4 0 0 1-3.002-1.865 4.36 4.36 0 0 1 .661-5.674l-2.091-3.504 1.717-1.025 2.56 4.288a1 1 0 0 1-.378 1.389 2.38 2.38 0 0 0-1.163 1.52 2.35 2.35 0 0 0 .345 1.878 2.37 2.37 0 0 0 1.633 1.013 2.4 2.4 0 0 0 1.855-.518 1 1 0 0 1 1.224-.035 3.52 3.52 0 0 0 4.538-.329 3.466 3.466 0 0 0 .388-4.498 1 1 0 0 1 .05-1.231 2.355 2.355 0 0 0-.201-3.259 2.39 2.39 0 0 0-3.294.052v.001q-.232.227-.392.508a1 1 0 0 1-1.388.362l-4.28-2.591 1.036-1.711 4.25 2.642.03-.05z" />
  <path d="M21.062 28a7.97 7.97 0 0 1 2.03-4.394q.145.263.315.513a6.38 6.38 0 0 0 4.373 2.717 6.4 6.4 0 0 0 3.073-.316 7.52 7.52 0 0 0 5.698-.168c.185.526.316 1.078.387 1.648H40v-.2a1 1 0 0 1 2 0v2.4a1 1 0 0 1-2 0V30h-3.062a7.96 7.96 0 0 1-1.618 3.906l1.88 1.88.493-.493a1 1 0 0 1 1.414 1.414l-2.4 2.4a1 1 0 0 1-1.414-1.414l.493-.493-1.88-1.88A7.96 7.96 0 0 1 30 36.938V40h.2a1 1 0 0 1 0 2h-2.4a1 1 0 0 1 0-2h.2v-3.062a7.97 7.97 0 0 1-4.127-1.797L21.714 37.3l.393.393a1 1 0 0 1-1.414 1.414l-2.4-2.4a1 1 0 0 1 1.414-1.414l.593.593 2.209-2.209A7.96 7.96 0 0 1 21.062 30H18v.2a1 1 0 0 1-2 0v-2.4a1 1 0 0 1 2 0v.2z" />
  <path d="M11 32a1 1 0 0 1 1 1v1.17q.15.054.293.122l.828-.828a1 1 0 0 1 1.414 1.415l-.827.828q.068.143.121.293H15a1 1 0 1 1 0 2h-1.17q-.054.15-.122.293l.828.828a1 1 0 0 1-1.415 1.414l-.828-.827a3 3 0 0 1-.293.121V41a1 1 0 1 1-2 0v-1.17a3 3 0 0 1-.293-.121l-.828.828a1 1 0 0 1-1.414-1.415l.827-.828A3 3 0 0 1 8.171 38H7a1 1 0 1 1 0-2h1.17q.054-.15.122-.294l-.827-.827a1 1 0 1 1 1.414-1.415l.828.828q.143-.068.293-.121V33a1 1 0 0 1 1-1" />
</svg>
